images/LOGOS_CLIENTES/ANSES.svg

<svg width="107" height="28" viewBox="0 0 107 28" fill="none" xmlns="http://www.w3.org/2000/svg">
<path d="M106.059 0H-0.00195312V28H106.059V0Z" fill="black"/>
<path d="M55.6947 11.5509C53.8098 10.9529 52.2036 10.437 52.2036 9.38777C52.2036 9.38777 52.1394 7.84575 54.4309 7.84575C55.3801 7.87857 56.3158 8.08109 57.1936 8.44374C59.6781 9.42883 60.7058 7.48018 61.006 6.64459C61.0464 6.54171 61.0537 6.42879 61.0268 6.32159C60.9999 6.21438 60.9403 6.11824 60.8561 6.0466C60.4074 5.64709 59.893 5.32824 59.3356 5.10416C57.8138 4.44531 56.176 4.09594 54.5178 4.07642C50.5986 4.07642 47.8785 6.4321 47.8785 9.7948V9.85699C47.8785 14.0334 53.7037 15.4039 54.0681 15.4681C54.0896 15.4681 54.0897 15.4681 54.1108 15.4897C55.9099 16.0251 57.4731 16.5178 57.4731 17.5886C57.4731 17.5886 57.5373 19.3028 54.9675 19.3028C53.6113 19.278 52.2812 18.9252 51.0909 18.2747C48.8206 17.3753 47.7286 19.1741 47.3858 19.9451C47.3417 20.0456 47.3304 20.1575 47.3534 20.2648C47.3765 20.3721 47.4327 20.4695 47.5141 20.5431C47.6425 20.6503 47.7932 20.8002 48.028 20.9712C50.0557 22.3141 52.428 23.0429 54.8599 23.0702C59.1219 23.0702 61.7774 20.8213 61.7774 17.1804V17.1162C61.7981 13.3927 55.6947 11.5509 55.6947 11.5509Z" fill="white"/>
<path d="M89.7474 11.5497C87.8625 10.9518 86.2563 10.4359 86.2563 9.38661C86.2563 9.38661 86.1921 7.8446 88.4836 7.8446C89.4328 7.87742 90.3685 8.07994 91.2463 8.44259C93.7308 9.42768 94.7585 7.47902 95.0583 6.64343C95.0987 6.54056 95.106 6.42764 95.0791 6.32044C95.0523 6.21323 94.9926 6.11709 94.9084 6.04544C94.4598 5.64594 93.9454 5.32709 93.388 5.10301C91.8707 4.42803 90.2311 4.07132 88.5705 4.05493C84.6513 4.05493 81.9312 6.41062 81.9312 9.77331V9.83551C81.9312 14.0119 87.7565 15.3825 88.1208 15.4467C88.1424 15.4467 88.1424 15.4467 88.1635 15.4682C89.9627 16.0036 91.5258 16.4963 91.5258 17.5671C91.5258 17.5671 91.59 19.2814 89.0202 19.2814C87.664 19.2565 86.3339 18.9037 85.1437 18.2532C82.8733 17.3538 81.7814 19.1526 81.4385 19.9236C81.3945 20.0241 81.3831 20.136 81.4062 20.2433C81.4292 20.3506 81.4854 20.448 81.5669 20.5216C81.6952 20.6288 81.8459 20.7787 82.0807 20.9498C84.1084 22.2926 86.4807 23.0214 88.9126 23.0487C93.1747 23.0487 95.8301 20.7999 95.8301 17.1589V17.0947C95.8297 13.3928 89.7474 11.5497 89.7474 11.5497Z" fill="white"/>
<path d="M39.1174 3.99066C37.5775 3.97297 36.0817 4.50454 34.8984 5.49002C34.754 5.59355 34.6179 5.70818 34.4914 5.83287C34.4276 5.88839 34.3532 5.93036 34.2728 5.95621C34.1923 5.98206 34.1074 5.99126 34.0233 5.98324C33.9391 5.97522 33.8575 5.95015 33.7833 5.90956C33.7092 5.86898 33.6441 5.81372 33.592 5.74716C33.5063 5.61879 33.4205 5.51155 33.3348 5.40431C32.4781 4.11903 30.6578 4.07637 29.7581 4.14056C29.6126 4.15244 29.4769 4.21845 29.3778 4.32556C29.2786 4.43267 29.2233 4.57307 29.2227 4.71901L29.2442 22.2808C29.244 22.4234 29.2963 22.5611 29.391 22.6677C29.4858 22.7743 29.6164 22.8423 29.7581 22.8589C30.9572 22.9446 33.8272 22.8589 33.8272 19.8175V12.4076C33.8272 9.88047 35.2835 8.25274 37.5539 8.25274C39.8242 8.25274 41.0876 9.70905 41.0876 12.3434V22.2808C41.0883 22.4267 41.1437 22.567 41.2428 22.674C41.3419 22.781 41.4776 22.847 41.623 22.8589C42.8222 22.9446 45.6921 22.7947 45.6921 19.8175V11.1012C45.7136 6.71072 43.1865 3.99066 39.1174 3.99066Z" fill="white"/>
<path d="M78.4393 15.2772C78.7312 15.279 79.0207 15.2224 79.2905 15.1109C79.5603 14.9993 79.8052 14.835 80.0106 14.6275C80.2161 14.42 80.378 14.1736 80.487 13.9027C80.5959 13.6318 80.6497 13.3418 80.645 13.0499C80.645 8.65943 77.561 3.99072 71.8642 3.99072C66.7242 3.99072 62.8477 8.1029 62.8477 13.5426V13.6283C62.8477 19.1538 66.8311 23.1587 72.3138 23.1587C74.3366 23.2067 76.3229 22.6145 77.9892 21.4668C78.446 21.1294 78.8564 20.7333 79.2099 20.2888C79.2809 20.1936 79.321 20.0789 79.3249 19.9602C79.3287 19.8416 79.2961 19.7246 79.2314 19.625C78.7602 18.8966 77.4538 17.3546 75.612 18.3828C74.6302 18.9579 73.5158 19.2678 72.378 19.2821C69.8724 19.2821 68.0518 17.7616 67.5594 15.2987H78.4393V15.2772ZM67.516 12.0433V12.0006C67.9657 9.49503 69.636 7.88842 71.8215 7.88842C74.1987 7.88842 75.4409 9.51616 75.9122 11.3169C75.932 11.4012 75.9326 11.4889 75.9138 11.5734C75.8951 11.6579 75.8575 11.7372 75.8038 11.8051C75.7501 11.8731 75.6818 11.928 75.6039 11.9659C75.5261 12.0037 75.4406 12.0235 75.354 12.0237L67.516 12.0433Z" fill="white"/>
<path d="M24.6617 6.19641C23.3552 4.84734 21.2778 4.11899 18.6435 4.11899C16.8567 4.10347 15.0809 4.40028 13.3963 4.99604C12.801 5.22356 12.2334 5.51778 11.7044 5.87309C11.5976 5.94246 11.5167 6.04507 11.4741 6.16505C11.4315 6.28504 11.4297 6.41571 11.4688 6.53686C11.7686 7.41391 12.711 9.32111 15.3454 8.57003C16.2457 8.32507 17.175 8.20264 18.1081 8.20605C19.8426 8.20605 21.8989 8.76418 22.1557 11.2474C22.1557 11.2474 20.2066 11.2048 18.1934 11.2474C13.482 11.3579 10.2266 13.4995 10.2266 17.2688V17.333C10.2266 21.2953 13.5889 23.1136 16.716 23.1136C19.4571 23.1136 21.0637 22.0212 21.7917 21.3359C21.851 21.2818 21.9214 21.2412 21.998 21.217C22.0745 21.1927 22.1555 21.1855 22.2351 21.1957C22.3148 21.2059 22.3913 21.2333 22.4593 21.2761C22.5273 21.3188 22.5851 21.3758 22.6289 21.4432C23.5283 22.7281 25.199 22.8568 26.0574 22.8353C26.2077 22.8317 26.3506 22.7691 26.4551 22.6609C26.5596 22.5527 26.6172 22.4076 26.6155 22.2572L26.637 11.8921C26.6318 9.40881 25.9681 7.50282 24.6617 6.19641ZM17.8509 19.6034C15.9449 19.6034 14.7015 18.6609 14.7015 17.1831V17.1189C14.7015 15.5554 16.1152 14.5487 18.4067 14.4419C19.8419 14.3777 22.2402 14.4204 22.2402 14.4204L22.2617 16.0696C22.2629 18.104 20.3996 19.6034 17.8509 19.6034Z" fill="white"/>
</svg>

<svg width="107" height="28" fill="none" xmlns="http://www.w3.org/2000/svg"><path d="M106.059 0H-.002v28h106.061V0Z" fill="#000"/><path d="M55.695 11.55c-1.885-.597-3.491-1.113-3.491-2.162 0 0-.065-1.542 2.227-1.542.95.033 1.885.235 2.763.598 2.484.985 3.512-.964 3.812-1.8a.53.53 0 0 0-.15-.597 5.207 5.207 0 0 0-1.52-.943 12.497 12.497 0 0 0-4.818-1.028c-3.92 0-6.64 2.356-6.64 5.719v.062c0 4.176 5.826 5.547 6.19 5.611.022 0 .022 0 .043.022 1.799.535 3.362 1.028 3.362 2.099 0 0 .064 1.714-2.505 1.714a8.404 8.404 0 0 1-3.877-1.028c-2.27-.9-3.362.9-3.705 1.67a.523.523 0 0 0 .128.598c.128.107.28.257.514.428a12.63 12.63 0 0 0 6.832 2.1c4.262 0 6.917-2.25 6.917-5.89v-.065c.021-3.723-6.082-5.565-6.082-5.565ZM89.747 11.55c-1.885-.598-3.49-1.114-3.49-2.163 0 0-.065-1.542 2.227-1.542.949.032 1.885.235 2.762.598 2.485.985 3.513-.964 3.812-1.8a.53.53 0 0 0-.15-.598 5.206 5.206 0 0 0-1.52-.942 12.148 12.148 0 0 0-4.818-1.048c-3.919 0-6.639 2.356-6.639 5.718v.063c0 4.176 5.826 5.546 6.19 5.61.021 0 .021 0 .043.022 1.799.536 3.362 1.028 3.362 2.1 0 0 .064 1.713-2.506 1.713a8.405 8.405 0 0 1-3.876-1.028c-2.27-.9-3.363.9-3.706 1.67a.523.523 0 0 0 .129.599c.128.107.279.257.514.428a12.63 12.63 0 0 0 6.832 2.099c4.262 0 6.917-2.25 6.917-5.89v-.064c0-3.702-6.083-5.545-6.083-5.545ZM39.117 3.99a6.476 6.476 0 0 0-4.219 1.5c-.144.104-.28.218-.407.343a.624.624 0 0 1-.899-.086c-.086-.128-.172-.235-.257-.343-.857-1.285-2.677-1.328-3.577-1.263a.583.583 0 0 0-.535.578l.021 17.562a.581.581 0 0 0 .514.578c1.2.086 4.07 0 4.07-3.042v-7.41c0-2.527 1.455-4.154 3.726-4.154 2.27 0 3.534 1.456 3.534 4.09v9.938a.583.583 0 0 0 .535.578c1.2.086 4.07-.064 4.07-3.042v-8.716c.02-4.39-2.506-7.11-6.576-7.11ZM78.44 15.277a2.194 2.194 0 0 0 2.205-2.227c0-4.39-3.084-9.06-8.78-9.06-5.14 0-9.017 4.113-9.017 9.553v.085c0 5.526 3.983 9.53 9.466 9.53a9.604 9.604 0 0 0 5.675-1.691 6.475 6.475 0 0 0 1.22-1.178.582.582 0 0 0 .022-.664c-.47-.728-1.777-2.27-3.619-1.242a6.561 6.561 0 0 1-3.234.9c-2.506 0-4.326-1.521-4.819-3.984h10.88v-.022Zm-10.924-3.234v-.042c.45-2.506 2.12-4.113 4.305-4.113 2.378 0 3.62 1.628 4.091 3.429a.575.575 0 0 1-.558.707l-7.838.02ZM24.662 6.196c-1.307-1.349-3.384-2.077-6.018-2.077a15.338 15.338 0 0 0-5.248.877 8.436 8.436 0 0 0-1.692.877.58.58 0 0 0-.235.664c.3.877 1.242 2.784 3.876 2.033.9-.245 1.83-.367 2.763-.364 1.735 0 3.79.558 4.048 3.041 0 0-1.95-.042-3.963 0-4.711.11-7.966 2.252-7.966 6.022v.064c0 3.962 3.362 5.78 6.489 5.78 2.741 0 4.348-1.092 5.076-1.777a.554.554 0 0 1 .837.107c.9 1.285 2.57 1.414 3.428 1.392a.572.572 0 0 0 .559-.578l.021-10.365c-.005-2.483-.669-4.39-1.975-5.696ZM17.85 19.603c-1.906 0-3.15-.942-3.15-2.42v-.064c0-1.564 1.414-2.57 3.706-2.677 1.435-.064 3.833-.022 3.833-.022l.022 1.65c0 2.034-1.862 3.533-4.411 3.533Z" fill="#fff"/></svg>
